X:1
T:Preserve Us, Lord, LM
T:Preserve Us, Lord, LM
T:Medieval melody
T:Public Domain Courtesy of the Cyber Hymnal™
C:Medieval melody
Z:Public Domain
Z:Courtesy of the Cyber Hymnal™
%%score ( 1 2 ) ( 3 4 )
L:1/8
Q:1/4=112
M:none
K:Bb
V:1 treble 
V:2 treble 
V:3 bass 
V:4 bass 
V:1
 [DG]2 | [DB]2 [EG]2 [DF]2 [EG]2 | [DB]2 A2 [B,G]2 [DB]2 | [Gc]2 [Gc]2 [^Fd]2 [GB]2 | %4
 [Gc]2 [Fc]2 [Fd]2 [Fd]2 | [Ge]2 [Gd]2 [Ff]2 [Fd]2 | c2 (z [DB]2) [Fd]2 x | [FB]2 c2 B2 [EA]2 | %8
 G2 [D^F]2 [DG]2 |] %9
V:2
 x2 | x8 | x2 (DC) x4 | x8 | x8 | x8 | F3 (c2 E) x2 | x2 (GA) (GF) x2 | (B,C) x4 |] %9
V:3
 [G,,B,]2 | G,2 (G,A,) [B,,B,]2 [E,B,]2 | G,2 [D,^F,]2 [G,,G,]2 G,2 | %3
 [E,G,]2 [E,G,]2 [D,A,]2 [G,B,]2 | [E,B,]2 [F,A,]2 [B,,B,]2 [B,,B,]2 | [E,B,]2 [G,B,]2 [A,C]2 B,2 | %6
 [F,B,]2 [F,A,]2 [B,,B,]2 B,2 | [D,F]2 E2 [G,D]2 [C,C]2 | [E,G,]2 [D,A,]2 [G,,B,]2 |] %9
V:4
 x2 | G,2 E,2 x4 | (B,,C,) x3 G,2 x | x8 | x8 | x6 B,2 | x6 B,2 | x2 (E,F,) x4 | x6 |] %9

